X: 420
T: Give Us a Drink of Water
R: Slip jig, hop
%S: s:2 b:10(5+5)
B: Francis O'Neill: "The Dance Music of Ireland" (1907) #420
Z: Frank Nordberg - http://www.musicaviva.com
F: http://www.musicaviva.com/abc/tunes/ireland/oneill-1001/0420/oneill-1001-0420-1.abc
M: 9/8
L: 1/8
K: G
"^A"[|]\
D | GBd gdc BAG | (B<d)B cAA A2(A | G)Bd gdc BAG | (B<c)A BGG G2 "^B":: d | gfg efg fed |
| gfg efg a2 [1 d | gfg bag fed | efg afd g2 :|[2 a | bag agf fed | efg afd g2 |]
